X:1
T:Lonesome Jig, The
R:jig
M:6/8
L:1/8
K:D
F2E EDE|F2D D2D|F2E EFA|d2e fdA|
F2E EDE|F2D D2E|F2E EFA|BAB d3:|
ABd e2f|d2c B2A|ABd e2e|dBA B3|
ABd efd|AdB BAF|AFE EFA|1 BAB d3:|2 d2e fdA|]
</abc>
